icons/fill-new-symbol-filter.svg

<svg xmlns="http://www.w3.org/2000/svg" width="32px" height="32px" viewBox="0 0 32 32" version="1.1">
    <title>fill-new-symbol-filter</title>
    <g id="fill-new-symbol-filter" stroke-width="1" fill-rule="evenodd">
        <path d="M24.0857864,3 C24.3510029,3 24.6053568,3.10535684 24.7928932,3.29289322 C25.1834175,3.68341751 25.1834175,4.31658249 24.7928932,4.70710678 L16.7928932,12.7071068 C16.6053568,12.8946432 16.5,13.1489971 16.5,13.4142136 L16.5,29.726765 C16.5,29.9769566 16.4062148,30.2180598 16.2371541,30.4024896 C15.8639617,30.8096086 15.2313944,30.8371115 14.8242754,30.4639191 L10.8242754,26.7972524 C10.6176464,26.6078425 10.5,26.3404047 10.5,26.0600983 L10.5,13.3992752 C10.5,13.1429307 10.4015565,12.8963753 10.2249994,12.7105257 L2.60431199,4.68874946 C2.42775489,4.50289988 2.32931142,4.25634444 2.32931142,4 C2.32931142,3.44771525 2.77702667,3 3.32931142,3 L24.0857864,3 Z M28,24 C28.5522847,24 29,24.4477153 29,25 C29,25.5522847 28.5522847,26 28,26 L22,26 C21.4477153,26 21,25.5522847 21,25 C21,24.4477153 21.4477153,24 22,24 L28,24 Z M28,19 C28.5522847,19 29,19.4477153 29,20 C29,20.5522847 28.5522847,21 28,21 L22,21 C21.4477153,21 21,20.5522847 21,20 C21,19.4477153 21.4477153,19 22,19 L28,19 Z M28,14 C28.5522847,14 29,14.4477153 29,15 C29,15.5522847 28.5522847,16 28,16 L22,16 C21.4477153,16 21,15.5522847 21,15 C21,14.4477153 21.4477153,14 22,14 L28,14 Z" id="&#24418;&#29366;" fill-rule="nonzero" />
    </g>
</svg>

<svg xmlns="http://www.w3.org/2000/svg" viewBox="0 0 32 32"><path fill="currentColor" d="M24.086 3a1 1 0 0 1 .707 1.707l-8 8a1 1 0 0 0-.293.707v16.313a1 1 0 0 1-1.676.737l-4-3.667a1 1 0 0 1-.324-.737V13.4a1 1 0 0 0-.275-.69L2.605 4.69A1 1 0 0 1 3.328 3zM28 24a1 1 0 0 1 0 2h-6a1 1 0 0 1 0-2zm0-5a1 1 0 0 1 0 2h-6a1 1 0 0 1 0-2zm0-5a1 1 0 0 1 0 2h-6a1 1 0 0 1 0-2z"/></svg>
